src/assets/outline/CameraSlash.svg

<svg width="24" height="24" viewBox="0 0 24 24"  xmlns="http://www.w3.org/2000/svg">
<path d="M9 10.75H6C5.59 10.75 5.25 10.41 5.25 10C5.25 9.59 5.59 9.25 6 9.25H9C9.41 9.25 9.75 9.59 9.75 10C9.75 10.41 9.41 10.75 9 10.75Z" />
<path d="M17.2398 22.75H6.75977C6.34977 22.75 6.00977 22.41 6.00977 22C6.00977 21.59 6.34977 21.25 6.75977 21.25H17.2398C19.2598 21.25 20.3498 20.22 20.4798 18.2L20.9998 9.94004C21.0498 9.23004 20.8398 8.53004 20.4098 7.96004C20.1598 7.63004 20.2298 7.16004 20.5598 6.91004C20.8898 6.66004 21.3598 6.73004 21.6098 7.06004C22.2498 7.92004 22.5698 8.97004 22.4998 10.04L21.9798 18.3C21.7998 21.13 20.0698 22.75 17.2398 22.75Z" />
<path d="M3.44017 21.21C3.20017 21.21 2.96017 21.09 2.81017 20.87C2.35017 20.17 2.08017 19.3 2.02017 18.29L1.50017 10.04C1.42017 8.79 1.85017 7.59 2.71017 6.68C3.56017 5.77 4.76017 5.25 6.00017 5.25C6.32017 5.25 6.63017 5.06 6.78017 4.76L7.50017 3.33C8.09017 2.16 9.57017 1.25 10.8602 1.25H13.1502C14.4402 1.25 15.9102 2.16 16.5002 3.32L17.2202 4.78C17.3702 5.06 17.6702 5.25 18.0002 5.25C18.4102 5.25 18.7502 5.59 18.7502 6C18.7502 6.41 18.4102 6.75 18.0002 6.75C17.1102 6.75 16.3002 6.25 15.8802 5.46L15.1502 4C14.8202 3.34 13.8802 2.76 13.1402 2.76H10.8502C10.1102 2.76 9.17017 3.34 8.83017 4.01L8.12017 5.44C7.70017 6.25 6.89017 6.75 6.00017 6.75C5.16017 6.75 4.38017 7.09 3.80017 7.7C3.23017 8.31 2.94017 9.11 3.00017 9.94L3.52017 18.2C3.56017 18.93 3.75017 19.57 4.07017 20.04C4.30017 20.39 4.20017 20.85 3.86017 21.08C3.73017 21.17 3.58017 21.21 3.44017 21.21Z" />
<path d="M12.0002 18.7499C11.1102 18.7499 10.2402 18.4499 9.54017 17.8999C9.21017 17.6399 9.16017 17.1699 9.41017 16.8499C9.67017 16.5199 10.1402 16.4699 10.4602 16.7199C10.9002 17.0599 11.4402 17.2499 12.0002 17.2499C13.3802 17.2499 14.5002 16.1299 14.5002 14.7499C14.5002 14.2699 14.3702 13.8099 14.1202 13.4199C13.9002 13.0699 14.0002 12.6099 14.3502 12.3799C14.7002 12.1599 15.1602 12.2599 15.3902 12.6099C15.7902 13.2399 16.0102 13.9799 16.0102 14.7399C16.0002 16.9599 14.2102 18.7499 12.0002 18.7499Z" />
<path d="M1.99994 22.7499C1.80994 22.7499 1.61994 22.6799 1.46994 22.5299C1.17994 22.2399 1.17994 21.7599 1.46994 21.4699L21.4699 1.46994C21.7599 1.17994 22.2399 1.17994 22.5299 1.46994C22.8199 1.75994 22.8199 2.23994 22.5299 2.52994L2.52994 22.5299C2.37994 22.6799 2.18994 22.7499 1.99994 22.7499Z" />
</svg>

<?xml version="1.0" encoding="UTF-8"?>
<svg width="24" height="24" viewBox="0 0 24 24" xmlns="http://www.w3.org/2000/svg">
 <path d="m9 10.75h-3c-0.41 0-0.75-0.34-0.75-0.75s0.34-0.75 0.75-0.75h3c0.41 0 0.75 0.34 0.75 0.75s-0.34 0.75-0.75 0.75z"/>
 <path d="m17.24 22.75h-10.48c-0.41 0-0.75-0.34-0.75-0.75s0.34-0.75 0.75-0.75h10.48c2.02 0 3.11-1.03 3.24-3.05l0.52-8.26c0.05-0.71-0.16-1.41-0.59-1.98-0.25-0.33-0.18-0.8 0.15-1.05s0.8-0.18 1.05 0.15c0.64 0.86 0.96 1.91 0.89 2.98l-0.52 8.26c-0.18 2.83-1.91 4.45-4.74 4.45z"/>
 <path d="m3.4402 21.21c-0.24 0-0.48-0.12-0.63-0.34-0.46-0.7-0.73-1.57-0.79-2.58l-0.52-8.25c-0.08-1.25 0.35-2.45 1.21-3.36 0.85-0.91 2.05-1.43 3.29-1.43 0.32 0 0.63-0.19 0.78-0.49l0.72-1.43c0.59-1.17 2.07-2.08 3.36-2.08h2.29c1.29 0 2.76 0.91 3.35 2.07l0.72 1.46c0.15 0.28 0.45 0.47 0.78 0.47 0.41 0 0.75 0.34 0.75 0.75s-0.34 0.75-0.75 0.75c-0.89 0-1.7-0.5-2.12-1.29l-0.73-1.46c-0.33-0.66-1.27-1.24-2.01-1.24h-2.29c-0.74 0-1.68 0.58-2.02 1.25l-0.71 1.43c-0.42 0.81-1.23 1.31-2.12 1.31-0.84 0-1.62 0.34-2.2 0.95-0.57 0.61-0.86 1.41-0.8 2.24l0.52 8.26c0.04 0.73 0.23 1.37 0.55 1.84 0.23 0.35 0.13 0.81-0.21 1.04-0.13 0.09-0.28 0.13-0.42 0.13z"/>
 <path d="m12 18.75c-0.89 0-1.76-0.3-2.46-0.85-0.33-0.26-0.38-0.73-0.13-1.05 0.26-0.33 0.73003-0.38 1.05-0.13 0.44 0.34 0.98 0.53 1.54 0.53 1.38 0 2.5-1.12 2.5-2.5 0-0.48-0.13-0.94-0.38-1.33-0.22-0.35-0.12-0.81 0.23-1.04 0.35-0.22 0.81-0.12 1.04 0.23 0.4 0.63 0.62 1.37 0.62 2.13-0.01 2.22-1.8 4.01-4.01 4.01z"/>
 <path d="m1.9999 22.75c-0.19 0-0.38-0.07-0.53-0.22-0.29-0.29-0.29-0.77 0-1.06l20-20c0.29-0.29 0.77-0.29 1.06 0s0.29 0.77 0 1.06l-20 20c-0.15 0.15-0.34 0.22-0.53 0.22z"/>
</svg>
